X:1
T:Have Courage to Say No!
T:Have Courage to Say No!
T:Horatio Richmond Palmer
T:Horatio Richmond Palmer, 1870
T:Public Domain Courtesy of the Cyber Hymnal™
T:Public Domain Courtesy of the Cyber Hymnal™
C:Horatio Richmond Palmer
Z:Public Domain
Z:Courtesy of the Cyber Hymnal™
%%score ( 1 2 ) ( 3 4 )
L:1/8
Q:1/4=103
M:6/8
K:G
V:1 treble 
V:2 treble 
V:3 bass 
V:4 bass 
V:1
 D | D<GG G>FG | [DB]3 d2 d | d>AA AGA | [DGB]3- [DGB]2 D | D>GG G>FG | [DB]3 d2 B | A<AA AB^c | %8
w: 1.~You’re|start- ing, my boy, on life’s|jour- ney, A-|long the grand high- way of|life; * You’ll|meet with a thou- sand temp-|ta- tions— Each|ci- ty with e- vil is|
w: 2.~In|cour- age, my boy, lies your|safe- ty, When|you the long jour- ney be-|gin, * Your|trust in a heav- en- ly|Fa- ther Will|keep you un- spott- ed from|
w: 3.~Be|care- ful in choos- ing com-|pan- ions, Seek|on- ly the brave and the|true, * And|stand by your friends when in|tri- al, Ne’er|chang- ing the old for the|
 [DFd]3- [DFd]2 D | c>cc cdc | [DGB]3 d2 B | c>cc A<dc | [DGB]3- [DGB]2 B | B>BB B>BB | %14
w: rife. * This|world is a stage of ex-|cite- ment, There’s|dan- ger wher- ev- er you|go; * But|if you are tempt- ed to|
w: sin. * Temp-|ta- tions will go on in-|creas- ing, As|streams from a riv- u- let|flow; * But|if you’d be true to your|
w: new; * And|when by false friends you are|tempt- ed The|taste of the wine cup to|know, * With|firm- ness, with pa- tience and|
 [EGB]3 B2 B | [Ec]<[Ec]E F>ED | [DG]3- [DG]2 ||"^Refrain" D | [DG]<[DG][DG] [DG]>[DF][DG] | %19
w: weak- ness, Have|cour- age, my boy, to say|No! *|||
w: man- hood, Have|cour- age, my boy, to say|No! *|Have|cour- age, my boy, to say|
w: kind- ness, Have|cour- age, my boy, to say|No! *|||
 [GB]3- [GB]2 D | [GB]<[GB][GB] [GB]>[FA][GB] | [Bd]3- [Bd]2 [Gd] | [Fd]<[Fe][FA] [FA]2 [Fd] | %23
w: ||||
w: No! * Have|cour- age, my boy, to say|No! * Have|cour- age, my boy, Have|
w: ||||
 [Gd]<[Ge][GB] [GB]2 [Gd] | [Fd]<[Fe][Fd] [Fc]>[GB][FA] | G3- G2 |] %26
w: |||
w: cour- age, my boy, Have|cour- age, my boy, to say|No! *|
w: |||
V:2
 x | D3 D3 | x3 D3 | [DF]2 [DF]3 x | x6 | D3 D3 | x3 D3 | [DF]3 [EG]3 | x6 | [DFA]3 [DFA]3 | %10
 x3 [DG]3 | [DFA]3 [DF]3 | x6 | [^DF]3 [DF]3 | x3 [EG]3 | x2 E C3 | x5 || D | x6 | x5 D | x6 | x6 | %22
 x6 | x6 | x6 | G3- G2 |] %26
V:3
 z | [G,B,]3 [G,B,]3 | [G,B,]3 [G,B,]3 | D,3 D,3 | G,3- G,2 z | [G,B,]3 [G,B,]3 | [G,B,]3 [G,B,]3 | %7
w: |~ ~|~ ~|~ ~|~ *|~ ~|~ ~|
 A,3 A,,3 | [D,A,]3- [D,A,]2 z | D,3 D,3 | [G,B,]3 [G,B,]3 | D,3 D,3 | G,3- G,2 z | %13
w: ~ ~|~ *|~ ~|~ ~|~ ~|~ *|
 [B,,B,]3 [B,,B,]3 | E,3 E,3 | [C,G,]<[C,G,][C,A,] A,>G,A, | [G,,B,]3- [G,,B,]2 || [G,B,] | %18
w: ~ ~|~ ~|~ ~ ~ ~ ~ ~|~ *|~|
 [G,B,]<[G,B,][G,B,] [G,B,]>[G,A,][G,B,] | D3 [G,D]2 [G,B,] | [G,B,]<[G,D][G,D] [G,D]>[G,D][G,D] | %21
w: ~ ~ ~ ~ ~ ~|~ say No!|~ ~ ~ ~ ~ ~|
 G,2 G, G,2 [G,B,] | [D,A,]<[D,A,][D,D] [D,D]2 [D,A,] | [G,B,]<[G,C][G,D] [G,D]2 [G,B,] | %24
w: ~ ~ say No!|||
 [D,A,]<[D,A,][D,A,] [D,A,]>[D,B,][D,C] | [G,,G,B,]3- [G,,G,B,]2 |] %26
w: ||
V:4
 x | x6 | x6 | x6 | x6 | x6 | x6 | x6 | x6 | x6 | x6 | x6 | x6 | x6 | x6 | x3 D,3 | x5 || x | x6 | %19
 G,2 G, x3 | x6 | G,2 G, G,2 x | x6 | x6 | x6 | x5 |] %26

